src/assets/linkedin.svg

<svg width="24" xmlns="http://www.w3.org/2000/svg" height="24" id="screenshot-080d10d2-8651-80f4-8008-2fd5898fcf37" viewBox="0 0 24 24" xmlns:xlink="http://www.w3.org/1999/xlink" fill="none" version="1.1"><g id="shape-080d10d2-8651-80f4-8008-2fd5898fcf37"><g class="frame-container-wrapper"><g class="frame-container-blur"><g class="frame-container-shadows"><g fill="none"><g class="fills" id="fills-080d10d2-8651-80f4-8008-2fd5898fcf37"><rect rx="0" ry="0" x="0" y="0" width="24" height="24" transform="matrix(1.000000, 0.000000, 0.000000, 1.000000, 0.000000, 0.000000)" class="frame-background"/></g><g class="frame-children"><g id="shape-080d10d2-8651-80f4-8008-2fd5898fcf38"><g class="frame-container-wrapper"><g class="frame-container-blur"><g class="frame-container-shadows"><g fill="none"><g class="fills" id="fills-080d10d2-8651-80f4-8008-2fd5898fcf38"><rect rx="0" ry="0" x="0" y="0" width="24" height="24" transform="matrix(1.000000, 0.000000, 0.000000, 1.000000, 0.000000, 0.000000)" class="frame-background"/></g><g class="frame-children"><g id="shape-080d10d2-8651-80f4-8008-2fd5898fcf39" style="display: none;"><g class="fills" id="fills-080d10d2-8651-80f4-8008-2fd5898fcf39"><rect width="24" height="24" x="0" stroke-linejoin="round" transform="matrix(1.000000, 0.000000, 0.000000, 1.000000, 0.000000, 0.000000)" style="fill: none;" ry="0" fill="none" stroke-linecap="round" rx="0" y="2.2737367544323206e-13"/></g><g fill="none" stroke-linejoin="round" stroke-linecap="round" id="strokes-ae3e2cf6-af9a-8045-8008-378be2f82171-080d10d2-8651-80f4-8008-2fd5898fcf39" class="strokes"><g class="inner-stroke-shape" transform="matrix(1.000000, 0.000000, 0.000000, 1.000000, 0.000000, 0.000000)"><defs><clipPath id="inner-stroke-render-3-080d10d2-8651-80f4-8008-2fd5898fcf39-0"><use href="#stroke-shape-render-3-080d10d2-8651-80f4-8008-2fd5898fcf39-0"/></clipPath><rect rx="0" ry="0" x="0" y="2.2737367544323206e-13" width="24" height="24" id="stroke-shape-render-3-080d10d2-8651-80f4-8008-2fd5898fcf39-0" style="fill: none; stroke-width: 4; stroke: rgb(26, 26, 26); stroke-opacity: 1;"/></defs><use href="#stroke-shape-render-3-080d10d2-8651-80f4-8008-2fd5898fcf39-0" clip-path="url('#inner-stroke-render-3-080d10d2-8651-80f4-8008-2fd5898fcf39-0')"/></g></g></g><g id="shape-080d10d2-8651-80f4-8008-2fd5898fcf3a"><g class="fills" id="fills-080d10d2-8651-80f4-8008-2fd5898fcf3a"><path d="M16,8.0001220703125C19.313720703125,8.0001220703125,22,10.6864013671875,22,14.0001220703125L22,21.0001220703125L18,21.0001220703125L18,14.0001220703125C18,12.8955078125,17.1046142578125,12.0001220703125,16,12.0001220703125C14.8953857421875,12.0001220703125,14,12.8955078125,14,14.0001220703125L14,21.0001220703125L10,21.0001220703125L10,14.0001220703125C10,10.6864013671875,12.686279296875,8.0001220703125,16,8.0001220703125Z" fill="none" stroke-linecap="round" stroke-linejoin="round" style="fill: none;"/></g><g fill="none" stroke-linecap="round" stroke-linejoin="round" id="strokes-ae3e2cf6-af9a-8045-8008-378be2f94956-080d10d2-8651-80f4-8008-2fd5898fcf3a" class="strokes"><g class="stroke-shape"><path d="M16,8.0001220703125C19.313720703125,8.0001220703125,22,10.6864013671875,22,14.0001220703125L22,21.0001220703125L18,21.0001220703125L18,14.0001220703125C18,12.8955078125,17.1046142578125,12.0001220703125,16,12.0001220703125C14.8953857421875,12.0001220703125,14,12.8955078125,14,14.0001220703125L14,21.0001220703125L10,21.0001220703125L10,14.0001220703125C10,10.6864013671875,12.686279296875,8.0001220703125,16,8.0001220703125Z" style="fill: none; stroke-width: 2; stroke: rgb(26, 26, 26); stroke-opacity: 1;"/></g></g></g><g id="shape-080d10d2-8651-80f4-8008-2fd5898fcf3b"><g class="fills" id="fills-080d10d2-8651-80f4-8008-2fd5898fcf3b"><rect width="4" height="12" x="2" stroke-linejoin="round" transform="matrix(1.000000, 0.000000, 0.000000, 1.000000, 0.000000, 0.000000)" style="fill: none;" ry="0" fill="none" stroke-linecap="round" rx="0" y="9"/></g><g fill="none" stroke-linejoin="round" stroke-linecap="round" id="strokes-ae3e2cf6-af9a-8045-8008-378be2f9e3e2-080d10d2-8651-80f4-8008-2fd5898fcf3b" class="strokes"><g class="stroke-shape"><rect rx="0" ry="0" x="2" y="9" transform="matrix(1.000000, 0.000000, 0.000000, 1.000000, 0.000000, 0.000000)" width="4" height="12" style="fill: none; stroke-width: 2; stroke: rgb(26, 26, 26); stroke-opacity: 1;"/></g></g></g><g id="shape-080d10d2-8651-80f4-8008-2fd5898fcf3c"><g class="fills" id="fills-080d10d2-8651-80f4-8008-2fd5898fcf3c"><ellipse cy="4" stroke-linejoin="round" transform="matrix(1.000000, 0.000000, 0.000000, 1.000000, 0.000000, 0.000000)" style="fill: none;" ry="2" fill="none" stroke-linecap="round" rx="2" cx="4"/></g><g fill="none" stroke-linecap="round" stroke-linejoin="round" id="strokes-ae3e2cf6-af9a-8045-8008-378be2fa3171-080d10d2-8651-80f4-8008-2fd5898fcf3c" class="strokes"><g class="stroke-shape"><ellipse cx="4" cy="4" rx="2" ry="2" transform="matrix(1.000000, 0.000000, 0.000000, 1.000000, 0.000000, 0.000000)" style="fill: none; stroke-width: 2; stroke: rgb(26, 26, 26); stroke-opacity: 1;"/></g></g></g></g></g></g></g></g></g></g></g></g></g></g></g></svg>

<?xml version="1.0" encoding="UTF-8" standalone="no"?>
<svg
   width="24"
   height="24"
   viewBox="0 0 24 24"
   fill="none"
   version="1.1"
   id="svg17"
   xmlns="http://www.w3.org/2000/svg"
   xmlns:svg="http://www.w3.org/2000/svg">
  <defs
     id="defs17" />
  <g
     fill="none"
     stroke-linecap="round"
     stroke-linejoin="round"
     id="strokes-ae3e2cf6-af9a-8045-8008-378be2f94956-080d10d2-8651-80f4-8008-2fd5898fcf3a"
     class="strokes"
     style="display:inline">
    <path
       d="m 16,8.0001221 c 3.313721,0 6,2.6862789 6,5.9999999 v 7 h -4 v -7 c 0,-1.104614 -0.895386,-2 -2,-2 -1.104614,0 -2,0.895386 -2,2 v 7 h -4 v -7 c 0,-3.313721 2.686279,-5.9999999 6,-5.9999999 z"
       style="stroke-width:2"
       id="path5" />
  </g>
  <g
     fill="none"
     stroke-linejoin="round"
     stroke-linecap="round"
     id="strokes-ae3e2cf6-af9a-8045-8008-378be2f9e3e2-080d10d2-8651-80f4-8008-2fd5898fcf3b"
     class="strokes"
     style="display:inline">
    <rect
       rx="0"
       ry="0"
       x="2"
       y="9"
       width="4"
       height="12"
       style="stroke-width:2"
       id="rect6" />
  </g>
  <circle
     cx="4"
     cy="4"
     style="stroke-width:2"
     id="ellipse7"
     r="2" />
</svg>
